!!!COM: Bartók, Béla
!!!OTL: String Quartet No. 4
!!!OMV: V: Allegro molto
!!!example: 353
!!!work: Bar-37
**kern	**dynam	**kern	**dynam	**kern	**dynam	**kern	**dynam
*part4	*part4	*part3	*part3	*part2	*part2	*part1	*part1
*staff4	*	*staff3	*	*staff2	*	*staff1	*
*I"Violoncello	*	*I"Viola	*	*I"Violin II	*	*I"Violin I	*
*I'Vc.	*	*I'Vla.	*	*I'Vln. II	*	*I'Vln. I	*
*clefF4	*	*clefC3	*	*clefG2	*	*clefG2	*
*k[]	*	*k[]	*	*k[]	*	*k[]	*
*C:	*	*C:	*	*C:	*	*C:	*
*M2/4	*	*M2/4	*	*M2/4	*	*M2/4	*
*MM121	*	*MM121	*	*MM121	*	*MM121	*
=99	=99	=99	=99	=99	=99	=99	=99
4r	.	4r	.	2r	.	2r	.
8B~	.	8e~	.	.	.	.	.
8r	.	8r	.	.	.	.	.
=100	=100	=100	=100	=100	=100	=100	=100
8B~	.	8e~	.	8B~ 8e	ff	8B~ 8e	ff
8r	.	8r	.	8r	.	8r	.
8r	.	8r	.	4r	.	4r	.
8B~	.	8e~	.	.	.	.	.
=101	=101	=101	=101	=101	=101	=101	=101
8B~	.	8e~	.	8B~ 8e	.	8B~ 8e	.
8r	.	8r	.	8r	.	8r	.
4r	.	4r	.	4r	.	4r	.
=102	=102	=102	=102	=102	=102	=102	=102
2r	.	4r	.	8r	.	8r	.
.	.	.	.	(8g#X	mf	(8cc#X	mf
.	.	8r	.	8a#XL)	.	8dd#XL)	.
.	.	(8F#X 8c#X	mf	8gnJ	.	8ff#XJ	.
=103	=103	=103	=103	=103	=103	=103	=103
2r	.	8dL 8a	.	(8f#XL	.	(8bL	.
.	.	8F#XJ) 8c#X	.	8g#XJ)	.	8cc#XJ)	.
.	.	8r	.	8e#XL	.	8eeL	.
.	.	(8F# 8c#	.	(8g#J	.	(8cc#J	.
=104	=104	=104	=104	=104	=104	=104	=104
4r	.	8dL 8a	.	8a#XL)	.	8dd#XL)	.
.	.	8F#XJ) 8c#X	.	8gnJ	.	8ee#XJ	.
8r	.	4r	.	4r	.	4r	.
(8FF#X 8C#X	< f	.	.	.	.	.	.
=105	=105	=105	=105	=105	=105	=105	=105
8DL 8A	[ >	4r	.	2r	.	2r	.
8FF#XJ) 8C#X	]	.	.	.	.	.	.
4r	.	8r	.	.	.	.	.
.	.	(8F#X 8c#X	< f	.	.	.	.
=106	=106	=106	=106	=106	=106	=106	=106
8r	.	8dL 8a	[ >	2r	.	2r	.
(8FF#X 8C#X	< f	8F#XJ) 8c#X	]	.	.	.	.
8DL 8A	[ >	8r	.	.	.	.	.
8FF#J) 8C#	]	8r	.	.	.	.	.
=107	=107	=107	=107	=107	=107	=107	=107
4r	.	(8F#XL 8c#X	.	2r	.	2r	.
.	.	8dJ 8a	.	.	.	.	.
8r	.	8F#) 8c#	.	.	.	.	.
(8AA 8E	<	8r	.	.	.	.	.
=108	=108	=108	=108	=108	=108	=108	=108
8FL 8c	[ >	4r	.	4r	.	2r	.
8AAJ) 8E	]	.	.	.	.	.	.
(8GGL 8D	mf	8r	.	8r	.	.	.
8EJ) 8B	.	(8c#X	mf	(8d#X	mf	.	.
=109	=109	=109	=109	=109	=109	=109	=109
8r	.	8B#XL)	.	8e#XL)	.	2r	.
(8FF 8C	.	8AnJ	.	8g#XJ	.	.	.
8DL 8A	.	(8AL	.	(8BL	.	.	.
8FFJ) 8C	.	8G#XJ)	.	8c#XJ)	.	.	.
=110	=110	=110	=110	=110	=110	=110	=110
8r	.	8FnL	.	8enL	.	2r	.
(8FF 8C	.	(8BnJ	.	(8c#XJ	.	.	.
8DL 8A	.	8A#XL)	.	8d#XL)	.	.	.
8FFJ) 8C	.	8GnJ	.	8f#XJ	.	.	.
=111	=111	=111	=111	=111	=111	=111	=111
8r	.	2r	.	2r	.	2r	.
(8FF 8C	< f	.	.	.	.	.	.
8D-XL 8A-X	[ >	.	.	.	.	.	.
8FFJ) 8C	]	.	.	.	.	.	.
=112	=112	=112	=112	=112	=112	=112	=112
8r	.	(8AL 8e	.	2r	.	2r	.
8r	.	8fJ 8cc	.	.	.	.	.
(8FFL 8C	.	8G#X) 8d#X	.	.	.	.	.
8DnJ 8An	.	8r	.	.	.	.	.
=113	=113	=113	=113	=113	=113	=113	=113
8FF) 8C	.	8r	.	2r	.	2r	.
8r	.	(8Gn 8dn	<	.	.	.	.
8r	.	8e-XL 8b-X	[ >	.	.	.	.
(8EE 8BB	<	8FJ) 8c	]	.	.	.	.
=114	=114	=114	=114	=114	=114	=114	=114
8CL 8G	[ >	8r	.	8r	.	8r	.
8EE-XJ) 8BB-X	]	(8f	mf	(8ff	mf	(8gg	mf
4r	.	8eL)	.	8eeL)	.	8aaL)	.
.	.	8d-XJ	.	8dd-XJ	.	8cccJ	.
=115	=115	=115	=115	=115	=115	=115	=115
(8EnL 8Bn	.	4r	.	4r	.	4r	.
8cJ 8g	.	.	.	.	.	.	.
8E-X) 8B-X	.	8r	.	8r	.	8r	.
8r	.	(8G	f	(8f	f	(8g	f
=116	=116	=116	=116	=116	=116	=116	=116
4r	.	8AL)	.	8eL)	.	8aL)	.
.	.	8cnJ	.	8c#XJ	.	8ccJ	.
(8EEnL 8BBn	.	4r	.	8B	.	8d 8dd	.
8CJ 8G	.	.	.	8r	.	8r	.
=117	=117	=117	=117	=117	=117	=117	=117
8EE-X) 8BB-X	.	(8AL 8e	.	2r	.	2r	.
8r	.	8gJ 8cc	.	.	.	.	.
8r	.	8G) 8d	.	.	.	.	.
(8En 8Bn	.	8r	.	.	.	.	.
=118	=118	=118	=118	=118	=118	=118	=118
8cL 8g	.	4r	.	2r	.	2r	.
8E-XJ) 8B-X	.	.	.	.	.	.	.
8r	.	(8AL 8e	.	.	.	.	.
8r	.	8gJ 8cc	.	.	.	.	.
=119	=119	=119	=119	=119	=119	=119	=119
(8EEnL 8BBn	.	8G) 8d	.	8r	.	8r	.
8CJ 8G	.	8r	.	(8b-X	< f	(8cc	< f
8EE-X) 8BB-X	.	8r	.	8anL)	.	8ddL)	.
8r	.	(8A 8e	<	8g-XJ	[	8ffJ	[
=120	=120	=120	=120	=120	=120	=120	=120
8r	.	8gL 8cc	[ >	2r	.	2r	.
8r	.	8GJ) 8d	]	.	.	.	.
4r	.	8r	.	.	.	.	.
.	.	8r	.	.	.	.	.
=121	=121	=121	=121	=121	=121	=121	=121
2r	.	4E-X~ 4A-X 4e-X	ff	4e-X~ 4a-X 4ee-X	ff	4a-X~ 4ee 4aa-X	ff
.	.	4E-~ 4A- 4e-	.	4e-~ 4a- 4ee-	.	4a-~ 4ee 4aa-	.
=122	=122	=122	=122	=122	=122	=122	=122
2r	.	4E-X~ 4A-X 4e-X	.	4e-X~ 4a-X 4ee-X	.	4a-X~ 4ee 4aa-X	.
.	.	4E-~ 4A- 4e-	.	4e-~ 4a- 4ee-	.	4a-~ 4ee 4aa-	.
=	=	=	=	=	=	=	=
*-	*-	*-	*-	*-	*-	*-	*-
!!!system-decoration: [(s1,s2,s3,s4)]
!!!CDT: 1881/03/25-1945/09/26
!!!CBL: Sînnicolau Mare (Nagyszentmiklós), Romania (Hungary)
!!!CDL: New York, United States
!!!CNT: Hungarian
!!!AGN: Instrumental; Chamber
!!!MCN:
!!!MDT: 1929/03/20
!!!MGN: Waldbauer-Kerpely Quartet
!!!MLC: Budapest, Hungary
!!!MPD: 1929
!!!MPN: Kerpely, Jenö; Molnár, Antal; Temesváry, János; Waldbauer, Imre
!!!ODT: 1928 (rev. 1935)
!!!PDT: 1929
!!!excerpt-start-measure: 99
!!!excerpt-end-measure: 122
!!!excerpt-start-time: 1:17
!!!excerpt-end-time: 1:37
!!!EEV: 2020/01/25
!!!ONB: Converted from MusicXML on 2020/01/25
